X: 1052
T: Jigg
%R: jig, waltz
B: Henry Playford "Apollo's Banquet", London 1687 (5th Edition)
F: https://archive.org/details/apollosbanquetco01rugg
Z: 2017 John Chambers <jc:trillian.mit.edu>
M: 6/4
L: 1/8
K: G
% - - - - - - - - - -
d2 |\
(B2G2)d2 g3fe2 | d3cB2 (A2E2)G2 | F6 D4G2 |\
(E2C2)B2 c4B2 | (A2E2)F2 G3AF2 | G6- G4 :|
|: d2 |\
(B2G2)c2 Bcd2B2 | e2(AB)(cA) A4^G2 | A6 a6 |\
(f2d2)g2 fga2f2 | b2efg2 g4f2 | g6- g4 |]
% - - - - - - - - - -

%%sep 1 1 500
%%sep 1 1 500

